X:1
T:Title
%%score { ( 1 3 ) | ( 2 4 ) }
L:1/8
Q:1/4=100
M:3/4
K:F
V:1 treble nm="Grand Piano"
V:3 treble 
V:2 bass 
V:4 bass 
V:1
 A2 F2 G2 | A2 B2 A2 | [B,EG]2 [CEA]2 [B,EG]2 | [A,CF]6 | [CAc]2 [CFA]2 [CGB]2 | %5
w: William~J.~Kirkpatrick * *|||||
 [CAc]2 [FBd]2 [CAc]2 | [GB]2 [Ac]2 [GB]2 | A6 | d2 d2 d2 | c2 c2 c2 | B2 B2 [CGc]2 | [CFA]6 | %12
w: |||||||
 [CEG]2 [CFA]2 [DFB]2 | [_EFc]4 [DFB][DFB] | [FA]2 [EA]2 G2 | F6 | .c2 z2 [^Fd]2 | %17
w: |||||
 .[DB]2 z2 [CGc]2 | [FA]4 [DFB]2 | [CEG]6 | [CFA][CFA] z2 z2 | [FAd][FAd] A,2 AA | G2 A2 [DF=B]2 | %23
w: ||||||
[M:7/8] [Ec]- [Ec]3- [B,Ec]3 |[M:3/4] c4 z2 | B4 z2 | [FA]4 z2 |[M:7/8] G-G-G- G- G2- G/ z/ | %28
w: |||||
[M:3/4] F3 G AB | [Ac]4 [DGB]2 | A2- [DA]2 [B,EG]2 | [F,A,CF]6 |] %32
w: ||||
V:2
 [F,CF]2 [F,A,]2 [F,B,F]2 | [F,CF]2 [F,DF]2 [F,CF]2 | C,2 C,2 C,2 | F,6 | F,2 F,2 F,2 | %5
 F,2 F,2 F,2 | [C,C]2 [C,C]2 [C,C]2 | [F,CF]6 | [B,F]2 [B,F]2 [B,F]2 | [A,CF]2 [A,CF]2 [A,CF]2 | %10
 [G,CE]2 [G,CE]2 E,2 | F,6 | C,2 F,2 D,2 | A,,4 B,,B,, | [C,C]2 [C,C]2 [C,B,C]2 | [F,A,C]6 | %16
 .[F,A,F]2 z2 [D,A,]2 | G,4 E,2 | z2 _E2 B,,2 | C,6 | F,F, A,2 F,2 | %21
 D,D, z2[K:treble] [F,DF][F,DF] | [G,F]2- [G,CF]2 G,2 |[M:7/8][K:bass] z2 G,2 z z2 | %24
[M:3/4] [A,F]4 [D,A,]2 | D2 D2 E,2 | z2 _E2 B,,2 |[M:7/8] C,2 [D,=B,]2 [E,_B,]3 | %28
[M:3/4] [F,C]3- [F,B,C][K:treble] FG | z2 _E2 B,,2 | z2 =B,2 C,2 | F,,6 |] %32
V:3
 x6 | x6 | x6 | x6 | x6 | x6 | x6 | x6 | x6 | x6 | x6 | x6 | x6 | x6 | x6 | x6 | x6 | x6 | %18
 C2 z2 z2 | x6 | x6 | x6 | x6 |[M:7/8] C2 z z z z2 |[M:3/4] z2 D,2 [^Fd]2 | z2 G2 [CGc]2 | %26
 C2 z2 [DFB]2 |[M:7/8] [CE]2 F2 C3 |[M:3/4] x6 | C2 z2 z2 | [CF]2 z2 z2 | x6 |] %32
V:4
 x6 | x6 | x6 | x6 | x6 | x6 | x6 | x6 | x6 | x6 | x6 | x6 | x6 | x6 | x6 | x6 | x6 | x6 | F,4 z2 | %19
 x6 | x6 | x4[K:treble] x2 | =B,2 z2 z2 |[M:7/8][K:bass] C,-C,-C,- C,- C,2- C,/ z/ | %24
[M:3/4] F,2 z2 z2 | G,4 z2 | F,4 z2 |[M:7/8] x7 |[M:3/4] A,4[K:treble] [F,C]2 | F,4 z2 | C,4 z2 | %31
 x6 |] %32

